build/img/icons/how-it-works.svg

<svg width="20" height="20" viewBox="0 0 20 20" fill="none" xmlns="http://www.w3.org/2000/svg">
<circle cx="10" cy="10.0002" r="9" stroke="white"/>
<path d="M9.586 11.9972L9.313 8.01924L9.248 6.29024H11.172L11.107 8.01924L10.834 11.9972H9.586ZM10.21 15.1562C9.88067 15.1562 9.60333 15.0436 9.378 14.8182C9.16133 14.5842 9.053 14.2982 9.053 13.9602C9.053 13.6136 9.16133 13.3276 9.378 13.1022C9.60333 12.8682 9.88067 12.7512 10.21 12.7512C10.5393 12.7512 10.8123 12.8682 11.029 13.1022C11.2543 13.3276 11.367 13.6136 11.367 13.9602C11.367 14.2982 11.2543 14.5842 11.029 14.8182C10.8123 15.0436 10.5393 15.1562 10.21 15.1562Z" fill="white"/>
</svg>

<svg width="20" height="20" fill="none" xmlns="http://www.w3.org/2000/svg"><circle cx="10" cy="10" r="9" stroke="#fff"/><path d="M9.586 11.997L9.313 8.02l-.065-1.73h1.924l-.065 1.73-.273 3.977H9.586zm.624 3.16a1.13 1.13 0 01-.832-.339 1.216 1.216 0 01-.325-.858c0-.346.108-.632.325-.858a1.11 1.11 0 01.832-.35c.33 0 .602.116.819.35.225.226.338.512.338.858 0 .338-.113.624-.338.858-.217.226-.49.338-.819.338z" fill="#fff"/></svg>
